docs/eraser.svg

<svg xmlns="http://www.w3.org/2000/svg" width="24" height="24" viewBox="0 0 24 24"><path d="M10.85597 20h.2998349C11.5909491 19.9657654 12.0165519 19.7822288 12.3493903 19.4493903L13.0458369 18.7529437 5.25294373 10.9600505l-.69644661.6964466c-.74199616.741996200000001-.74199616 1.9450096.0 2.6870058l5.10588745 5.1058874C9.99522304 19.7822288 10.4208258 19.9657654 10.8559701 20zm2.3570242.0H18.5C18.7761424 20 19 20.2238576 19 20.5S18.7761424 21 18.5 21H11.1911564C11.0677787 21.0078499 10.9439962 21.0078499 10.8206199 21H5.5C5.22385763 21 5 20.7761424 5 20.5s.22385763-.5.5-.5H8.79878067L3.84939033 15.0506097c-1.13252044-1.1325205-1.13252044-2.9686989.0-4.1012194L10.9552778 3.84350288c1.1325204-1.13252044 2.9686989-1.13252044 4.1012193.0l5.1058875 5.10588745c1.1325204 1.13252047 1.1325204 2.96869887.0 4.10121937L13.2129942 20zM5.96005051 10.2529437l7.79289319 7.7928932 5.7023341-5.702334C20.1972739 11.6015067 20.1972739 10.3984933 19.4552778 9.65649712L14.3493903 4.55060967c-.7419961-.74199616-1.9450096-.74199616-2.6870057.0L5.96005051 10.2529437z"/></svg>

<svg xmlns="http://www.w3.org/2000/svg" width="24" height="24" viewBox="0 0 24 24"><path d="M10.85597 20H11.1558049C11.5909491 19.9657654 12.0165519 19.7822288 12.3493903 19.4493903L13.0458369 18.7529437 5.25294373 10.9600505 4.55649712 11.6564971C3.81450096 12.3984933 3.81450096 13.6015067 4.55649712 14.3435029l5.10588745 5.1058874C9.99522304 19.7822288 10.4208258 19.9657654 10.8559701 20zM13.2129942 20H18.5C18.7761424 20 19 20.2238576 19 20.5S18.7761424 21 18.5 21H11.1911564C11.0677787 21.0078499 10.9439962 21.0078499 10.8206199 21H5.5C5.22385763 21 5 20.7761424 5 20.5S5.22385763 20 5.5 20H8.79878067L3.84939033 15.0506097C2.71686989 13.9180892 2.71686989 12.0819108 3.84939033 10.9493903L10.9552778 3.84350288C12.0877982 2.71098244 13.9239767 2.71098244 15.0564971 3.84350288l5.1058875 5.10588745C21.294905 10.0819108 21.294905 11.9180892 20.1623846 13.0506097L13.2129942 20zM5.96005051 10.2529437 13.7529437 18.0458369 19.4552778 12.3435029C20.1972739 11.6015067 20.1972739 10.3984933 19.4552778 9.65649712L14.3493903 4.55060967C13.6073942 3.80861351 12.4043807 3.80861351 11.6623846 4.55060967L5.96005051 10.2529437z"/></svg>
